X: 174
T: The Dusty Miller
M:9/8
R:slip jig
L:1/8
K:D
"D"~A3 A2G A2G|~A3 A2G B2d|~A3 A2G A2G|"G"B2G G2G B2d:|
|: "D"A2D ~D3 B2d|A2D ~D3 B2d|A2D ~D3 G2A|"G"B2B B2A B2d:|


